X: 32132
T: Peter Hardie's Lament For Sir M. Dick
R: jig
M: 6/8
K: Aminor
A/B/|cBA e2 d|Bdg dBG|cBA e2 d|BgB A2 A/B/|
cBA e2 d|Bdg dBG|c2 d efg|edc A2:|
e/f/|gag g2 e|dBg dBG|Aaa a2 g|gag e2 f|
gbg ege|dBg dBG|c2 d efg|edc A2 e/f/|
gag g2 e|dBg dBG|Aaa a2 g|gag e2 f|
gb/g/b/g/ eg/e/g/e/|dBg e/d/c/B/A/G/|c2 d efg|{f}edB A2||

